X: 35
T: JIG: Humours of Glendart
C: C: Trad.; S: Various
C: Set Leaders: Mars, Tania, Sophie, Anton
Z: [Unedited]; Will Harmon at The Session
N: https://thesession.org/members/26966/sets/94272
R: Jig
M: 6/8
L: 1/8
Q: 3/8=116
K: Dmaj
BAF AFD|FEF DFA|BAF AFD|FEE E2 A|
BAF AFD|FEF DFA|dcB AFE|FDD D2 A:||
def d2 B|~A3 AFA|def d2 f|ede fdB|
def d2 B|~A3 ABc|dcB AFE|FDD D2 A:||

